src/assets/icons/cars/offroad_car.svg

<svg width="48" height="48" viewBox="0 0 48 48" fill="none" xmlns="http://www.w3.org/2000/svg"><g fill-rule="evenodd" clip-rule="evenodd" fill="#253238"><path d="M31.5 29.5c1.103 0 2 .897 2 2s-.897 2-2 2-2-.897-2-2 .897-2 2-2zM28 29h-8a.97.97 0 00-.345.07A3.98 3.98 0 0016.5 27.5c-2.034 0-3.7 1.532-3.949 3.5h-.465A2.089 2.089 0 0110 28.914v-3.438c0-.985.672-1.823 1.634-2.037l2.161-.48c.069.014.132.041.205.041h7a1 1 0 000-2h-2.077c.241-.271.459-.564.624-.894l2.568-5A2.032 2.032 0 0123.928 14H33.1c.774 0 1.493.45 1.832 1.146l1.771 3.636c.194.323.297.695.297 1.073v8.653c0 .95-.663 2.057-1.561 2.386-.295-1.917-1.941-3.394-3.939-3.394a3.98 3.98 0 00-3.155 1.57A.97.97 0 0028 29zm-11.5 4.5c-1.103 0-2-.897-2-2s.897-2 2-2 2 .897 2 2-.897 2-2 2zm18.71-.524c2.246-.186 3.79-2.433 3.79-4.468V28a1 1 0 000-2v-5a1 1 0 000-2h-.098a3.741 3.741 0 00-.443-1.17l-1.729-3.558A4.06 4.06 0 0033.1 12h-9.172c-1.52 0-2.896.84-3.592 2.192l-2.573 5.01c-.291.582-.82 1.008-1.414 1.141L11.2 21.487A4.062 4.062 0 008 25.476v3.438A4.09 4.09 0 0012.086 33h.712a4.001 4.001 0 003.702 2.5c2.206 0 4-1.794 4-4 0-.171-.03-.334-.051-.5h7.102c-.021.166-.051.329-.051.5 0 2.206 1.794 4 4 4a4 4 0 003.71-2.524z"/><path d="M29 23v-5a1 1 0 00-2 0v5a1 1 0 002 0z"/></g></svg>

<svg width="48" height="48" viewBox="0 0 48 48" fill="none" xmlns="http://www.w3.org/2000/svg">
<g id="Icons / Vertical Cars / Car bodytype offroad">
<g id="Vector">
<path fill-rule="evenodd" clip-rule="evenodd" d="M31.5 29.5C32.603 29.5 33.5 30.397 33.5 31.5C33.5 32.603 32.603 33.5 31.5 33.5C30.397 33.5 29.5 32.603 29.5 31.5C29.5 30.397 30.397 29.5 31.5 29.5ZM28 29H20C19.878 29 19.763 29.029 19.655 29.07C18.923 28.122 17.788 27.5 16.5 27.5C14.466 27.5 12.8 29.032 12.551 31H12.086C10.936 31 10 30.064 10 28.914V25.476C10 24.491 10.672 23.653 11.634 23.439L13.795 22.959C13.864 22.973 13.927 23 14 23H21C21.552 23 22 22.552 22 22C22 21.448 21.552 21 21 21H18.923C19.164 20.729 19.382 20.436 19.547 20.106L22.115 15.106C22.466 14.424 23.161 14 23.928 14H33.1C33.874 14 34.593 14.45 34.932 15.146L36.703 18.782C36.897 19.105 37 19.477 37 19.855V28.508C37 29.458 36.337 30.565 35.439 30.894C35.144 28.977 33.498 27.5 31.5 27.5C30.212 27.5 29.077 28.122 28.345 29.07C28.237 29.029 28.122 29 28 29ZM16.5 33.5C15.397 33.5 14.5 32.603 14.5 31.5C14.5 30.397 15.397 29.5 16.5 29.5C17.603 29.5 18.5 30.397 18.5 31.5C18.5 32.603 17.603 33.5 16.5 33.5ZM35.21 32.976C37.456 32.79 39 30.543 39 28.508V28C39.552 28 40 27.552 40 27C40 26.448 39.552 26 39 26V21C39.552 21 40 20.552 40 20C40 19.448 39.552 19 39 19H38.902C38.812 18.572 38.665 18.168 38.459 17.83L36.73 14.272C36.06 12.892 34.634 12 33.1 12H23.928C22.408 12 21.032 12.84 20.336 14.192L17.763 19.202C17.472 19.784 16.943 20.21 16.349 20.343L11.2 21.487C9.316 21.906 8 23.546 8 25.476V28.914C8 31.167 9.833 33 12.086 33H12.798C13.393 34.463 14.825 35.5 16.5 35.5C18.706 35.5 20.5 33.706 20.5 31.5C20.5 31.329 20.47 31.166 20.449 31H27.551C27.53 31.166 27.5 31.329 27.5 31.5C27.5 33.706 29.294 35.5 31.5 35.5C33.183 35.5 34.62 34.452 35.21 32.976Z" fill="#253238"/>
<path fill-rule="evenodd" clip-rule="evenodd" d="M29 23V18C29 17.448 28.552 17 28 17C27.448 17 27 17.448 27 18V23C27 23.552 27.448 24 28 24C28.552 24 29 23.552 29 23Z" fill="#253238"/>
</g>
</g>
</svg>
